icons/lines/bezier-one.svg

<svg xmlns="http://www.w3.org/2000/svg" width="24" height="24" viewBox="0 0 24 24" fill="none" stroke="currentColor" stroke-width="2" stroke-linecap="round" stroke-linejoin="round" >
  <path d="M3 9C4.10457 9 5 8.10457 5 7C5 5.89543 4.10457 5 3 5C1.89543 5 1 5.89543 1 7C1 8.10457 1.89543 9 3 9Z" stroke-miterlimit="10"/>
  <path d="M21 9C22.1046 9 23 8.10457 23 7C23 5.89543 22.1046 5 21 5C19.8954 5 19 5.89543 19 7C19 8.10457 19.8954 9 21 9Z" stroke-miterlimit="10"/>
  <path d="M19 7H15" stroke-miterlimit="10"/>
  <path d="M9 7H5" stroke-miterlimit="10"/>
  <path d="M7.5 16.5V18.5C7.5 19.11 7.13 19.64 6.61 19.86C6.42 19.95 6.22 20 6 20H4C3.17 20 2.5 19.33 2.5 18.5V16.5C2.5 15.67 3.17 15 4 15H6C6.83 15 7.5 15.67 7.5 16.5Z" stroke-miterlimit="10"/>
  <path d="M21.5 16.5V18.5C21.5 19.33 20.83 20 20 20H18C17.78 20 17.58 19.95 17.39 19.86C16.87 19.64 16.5 19.11 16.5 18.5V16.5C16.5 15.67 17.17 15 18 15H20C20.83 15 21.5 15.67 21.5 16.5Z" stroke-miterlimit="10"/>
  <path d="M15 5.5V8.5C15 9.32 14.32 10 13.5 10H10.5C9.68 10 9 9.32 9 8.5V5.5C9 4.68 9.68 4 10.5 4H13.5C14.32 4 15 4.68 15 5.5Z" stroke-miterlimit="10"/>
  <path d="M15 7.72998C17.37 8.92998 19 11.51 19 14.5C19 14.67 18.99 14.83 18.97 15" stroke-miterlimit="10"/>
  <path d="M5.03 15C5.01 14.83 5 14.67 5 14.5C5 11.51 6.63 8.92998 9 7.72998" stroke-miterlimit="10"/>
  </svg>

<svg xmlns="http://www.w3.org/2000/svg" width="24" height="24" viewBox="0 0 24 24" fill="none" stroke="currentColor" stroke-width="2" stroke-linecap="round" stroke-linejoin="round">
  <path d="M15 7.73c2.37 1.2 4 3.78 4 6.77a4 4 0 0 1-.03.5" />
  <path d="M19 7h-4" />
  <path d="M21.5 18.5A1.5 1.5 0 0 1 20 20h-2a1.4 1.4 0 0 1-1.5-1.5v-2A1.5 1.5 0 0 1 18 15h2a1.5 1.5 0 0 1 1.5 1.5z" />
  <path d="M5.03 15a4 4 0 0 1-.03-.5c0-2.99 1.63-5.57 4-6.77" />
  <path d="M7.5 18.5A1.48 1.48 0 0 1 6 20H4a1.5 1.5 0 0 1-1.5-1.5v-2A1.5 1.5 0 0 1 4 15h2a1.5 1.5 0 0 1 1.5 1.5z" />
  <path d="M9 7H5" />
  <circle cx="21" cy="7" r="2" />
  <circle cx="3" cy="7" r="2" />
  <rect x="9" y="4" width="6" height="6" rx="1.511" />
</svg>
